Default.style/viewpoint.svg

<?xml version="1.0" encoding="UTF-8" standalone="no"?>
<svg width="32px" height="30px" viewBox="0 0 32 30" version="1.1" xmlns="http://www.w3.org/2000/svg" xmlns:xlink="http://www.w3.org/1999/xlink" xmlns:sketch="http://www.bohemiancoding.com/sketch/ns">
    <!-- Generator: Sketch 3.2.2 (9983) - http://www.bohemiancoding.com/sketch -->
    <title>viewpoint</title>
    <desc>Created with Sketch.</desc>
    <defs></defs>
    <g id="p" stroke="none" stroke-width="1" fill="none" fill-rule="evenodd" sketch:type="MSPage">
        <g id="viewpoint" sketch:type="MSLayerGroup" fill="#888888">
            <path d="M14,14.9406625 C14,12.9372159 3,12 3,12 C0.918701227,12 8.17838154e-17,12.9372159 0,14.9406625 C-8.17838154e-17,16.944109 0.98120119,18 3,18 C3.77124023,18 14,16.944109 14,14.9406625 L14,14.9406625 Z M29,18 C31.0812988,18 32,17.0627841 32,15.0593375 C32,13.055891 31.0187988,12 29,12 C28.2287598,12 18,13.055891 18,15.0593375 C18,17.0627841 29,18 29,18 L29,18 Z" id="Oval-15" sketch:type="MSShapeGroup"></path>
            <path d="M14.9486122,16.702382 C13.2135765,15.7006587 6.90192379,24.7583303 6.90192379,24.7583302 C5.8612744,26.5607879 6.21357653,27.8250144 7.94861217,28.8267377 C9.68364782,29.828461 11.0886768,29.5066613 12.0980762,27.7583302 C12.4836963,27.0904166 16.6836478,17.7041053 14.9486122,16.702382 L14.9486122,16.702382 Z M25.0980762,5.24166975 C26.1387256,3.43921214 25.7864235,2.17498561 24.0513878,1.17326231 C22.3163522,0.171539016 20.9113232,0.493338698 19.9019238,2.24166975 C19.5163037,2.90958339 15.3163522,12.2958947 17.0513878,13.297618 C18.7864235,14.2993413 25.0980762,5.24166975 25.0980762,5.24166975 L25.0980762,5.24166975 Z" id="Oval-16" sketch:type="MSShapeGroup"></path>
            <path d="M16.9486122,16.7617196 C15.2135765,17.7634429 19.9019238,27.7583302 19.9019238,27.7583302 C20.9425732,29.5607879 22.2135765,29.8877985 23.9486122,28.8860752 C25.6836478,27.8843519 26.1074756,26.5066613 25.0980762,24.7583302 C24.7124561,24.0904166 18.6836478,15.7599963 16.9486122,16.7617196 L16.9486122,16.7617196 Z M12.0980762,2.24166975 C11.0574268,0.439212141 9.78642347,0.112201466 8.05138783,1.11392476 C6.31635218,2.11564806 5.89252439,3.49333869 6.90192379,5.24166975 C7.28754391,5.90958338 13.3163522,14.2400037 15.0513878,13.2382804 C16.7864235,12.2365571 12.0980762,2.24166975 12.0980762,2.24166975 L12.0980762,2.24166975 Z" id="Oval-17" sketch:type="MSShapeGroup"></path>
        </g>
    </g>
</svg>

<svg width="32" height="30" xmlns="http://www.w3.org/2000/svg"><g fill="#888" fill-rule="evenodd"><path d="M14 14.94C14 12.938 3 12 3 12c-2.081 0-3 .937-3 2.94C0 16.945.981 18 3 18c.771 0 11-1.056 11-3.06ZM29 18c2.081 0 3-.937 3-2.94 0-2.004-.981-3.06-3-3.06-.771 0-11 1.056-11 3.06C18 17.062 29 18 29 18ZM14.949 16.702c-1.735-1.001-8.047 8.056-8.047 8.056-1.04 1.803-.688 3.067 1.047 4.069 1.735 1.001 3.14.68 4.15-1.069.385-.668 4.585-10.054 2.85-11.056Zm10.15-11.46c1.04-1.803.687-3.067-1.048-4.069-1.735-1.001-3.14-.68-4.15 1.069-.385.668-4.585 10.054-2.85 11.056 1.735 1.001 8.047-8.056 8.047-8.056ZM16.949 16.762c-1.735 1.001 2.953 10.996 2.953 10.996 1.04 1.803 2.312 2.13 4.047 1.128 1.735-1.002 2.158-2.38 1.15-4.128-.387-.668-6.415-8.998-8.15-7.996Zm-4.85-14.52C11.056.439 9.785.112 8.05 1.114c-1.735 1.002-2.158 2.38-1.15 4.128.387.668 6.415 8.998 8.15 7.996 1.735-1.001-2.953-10.996-2.953-10.996Z"/></g></svg>
